X:37
T:Canario
C:anon Spanish
M:6/8
L:1/8
K:D
zde|fdf geg|f3edc|Bcd edc|d3Ade||
fdf geg|f3edc|Bcd edc|d3|]
|:fgf efe|ded cdc|ABA Bcd|efg f3:|
|:zde|fef gag|fga efg|fed edc|d3Ade||
fef gag|fga efg|fed edc|d3|:zfg|agf efg|agf efg|fed cBc|d3:|
|:zde|f a2e a2|f a2e a2|fed ecA|d3:|
|:fg|a za g zg|a za efg|agf edc|d3:| 

